source/assets/ui/tabs/ctr_c.svg

<?xml version="1.0" encoding="UTF-8" standalone="no"?>
<!-- Created with Inkscape (http://www.inkscape.org/) -->

<svg
   width="70"
   height="24"
   viewBox="0 0 70 24"
   version="1.1"
   id="SVGRoot"
   xmlns="http://www.w3.org/2000/svg"
   xmlns:svg="http://www.w3.org/2000/svg"
   xmlns:rdf="http://www.w3.org/1999/02/22-rdf-syntax-ns#"
   xmlns:cc="http://creativecommons.org/ns#"
   xmlns:dc="http://purl.org/dc/elements/1.1/">
  <defs
     id="defs1725">
    <clipPath
       id="clipPath4439-1-0">
      <path
         d="m 76.965,496.958 h 257.093 v 52.963 H 76.965 Z"
         id="path4441-7-0" />
    </clipPath>
  </defs>
  <g
     id="layer1"
     transform="translate(-77.1393,-30.827056)">
    <g
       id="g2025-2"
       transform="matrix(1,0,0,1.0036061,-1857.8607,335.90878)">
      <path
         id="rect1836-4"
         style="fill:#ffffff;fill-opacity:1;stroke:none;stroke-width:0.0575886;stroke-miterlimit:4;stroke-dasharray:none;stroke-dashoffset:9.6;stroke-opacity:1;paint-order:markers stroke fill"
         d="M 29.332031 4.0292969 C 28.822531 4.0292969 28.142578 4.4397844 28.142578 4.9511719 L 28.142578 19.105469 C 28.142578 19.616856 28.5529 20.029297 29.0625 20.029297 L 41.939453 20.029297 C 42.449053 20.029297 42.859375 19.616856 42.859375 19.105469 L 42.859375 7.1269531 C 43.177975 6.6184761 43.499078 6.7312031 43.830078 6.6894531 L 43.855469 4.9511719 C 43.862469 4.480591 43.445147 4.0292969 42.935547 4.0292969 L 29.332031 4.0292969 z M 30.847656 5.984375 L 40.152344 5.984375 C 40.607244 5.984375 40.974609 6.3520432 40.974609 6.8085938 L 40.974609 8.6953125 L 30.025391 8.6953125 L 30.025391 6.8085938 C 30.025391 6.3520432 30.392756 5.984375 30.847656 5.984375 z M 30.025391 9.3105469 L 40.974609 9.3105469 L 40.974609 17.248047 C 40.974609 17.704607 40.607244 18.072266 40.152344 18.072266 L 30.847656 18.072266 L 30.025391 17.248047 L 30.025391 9.3105469 z "
         transform="matrix(1,0,0,0.99640686,1935,-303.98552)" />
    </g>
  </g>
  <metadata
     id="metadata2103">
    <rdf:RDF>
      <cc:Work
         rdf:about="">
        <dc:creator>
          <cc:Agent>
            <dc:title>NinStar</dc:title>
          </cc:Agent>
        </dc:creator>
      </cc:Work>
    </rdf:RDF>
  </metadata>
</svg>

<?xml version="1.0" encoding="UTF-8"?>
<svg id="a" width="70" height="24" version="1.1" viewBox="0 0 70 24" xmlns="http://www.w3.org/2000/svg" xmlns:cc="http://creativecommons.org/ns#" xmlns:dc="http://purl.org/dc/elements/1.1/" xmlns:rdf="http://www.w3.org/1999/02/22-rdf-syntax-ns#"><g transform="translate(-77.139 -30.827)"><g transform="matrix(1 0 0 1.0036 -1857.9 335.91)"><path transform="matrix(1 0 0 .99641 1935 -303.99)" d="m29.332 4.0293c-0.5095 0-1.1895 0.41049-1.1895 0.92188v14.154c0 0.51139 0.41032 0.92383 0.91992 0.92383h12.877c0.5096 0 0.91992-0.41244 0.91992-0.92383v-11.979c0.3186-0.50848 0.6397-0.39575 0.9707-0.4375l0.025391-1.7383c7e-3 -0.47058-0.41032-0.92188-0.91992-0.92188h-13.604zm1.5156 1.9551h9.3047c0.4549 0 0.82226 0.36767 0.82226 0.82422v1.8867h-10.949v-1.8867c0-0.45655 0.36736-0.82422 0.82226-0.82422zm-0.82226 3.3262h10.949v7.9375c0 0.45656-0.36736 0.82422-0.82226 0.82422h-9.3047l-0.82226-0.82422v-7.9375z" fill="#fff" style="paint-order:markers stroke fill"/></g></g><metadata><rdf:RDF><cc:Work rdf:about=""><dc:creator><cc:Agent><dc:title>NinStar</dc:title></cc:Agent></dc:creator></cc:Work></rdf:RDF></metadata></svg>
